X:88
T: DORT UNTEN GEHT MEIN TRAUERN AN
N: E0695
O: Europa, Mitteleuropa, Deutschland, Hessen, Eisenroth a.d. Lahn
R: Liebes - Lied, Leid, Klage
M: 3/4
L: 1/16
K: F
C2 | F2AGF6A2 | G2d2c6
B2 | A2c2B6A2 | G4F4z2
c2 | A2c2d6c2 | B2d2c6
B2 | A2c2B6A2 | G4F4z2
c2 | A2c2d6c2 | B2d2c6
B2 | A2c2B6A2 | G4F4z2

